src/scalable/apps/yast-autoyast.svg

<svg width="64" height="64" version="1.1" xmlns="http://www.w3.org/2000/svg">
 <circle cx="32" cy="32" r="27" fill="#7fbc34" stroke-width="3.7796" style="paint-order:stroke fill markers"/>
 <path d="M 32,5 A 27,27 0 0 0 5,32 27,27 0 0 0 23.699,57.678 38.322,38.322 0 0 0 58.785,28.875 27,27 0 0 0 32,5 Z" fill="#8cc348" stroke-width="5.3645" style="paint-order:stroke fill markers"/>
 <path d="m32 5a27 27 0 0 0-24.553 15.832 33.136 33.136 0 0 0 32.859 29.199 33.136 33.136 0 0 0 14.271-3.2656 27 27 0 0 0 4.4218-14.766 27 27 0 0 0-27-27z" fill="#008000" opacity=".1" stroke-width="4.6387" style="paint-order:stroke fill markers"/>
 <path d="m20.002 15.001a12 12 0 0 0 12 12 12 12 0 0 0 12-12h-3.001a8.9992 8.9992 0 0 1-8.9992 8.9992 8.9992 8.9992 0 0 1-9.003-8.9992z" fill="#fff" stroke-width="3.7796" style="paint-order:stroke markers fill"/>
 <path d="m30 31v2.204a10 10 0 0 0-3.508 1.46l-1.562-1.562-2.828 2.828 1.562 1.562a10 10 0 0 0-1.454 3.508h-2.21v4h2.204a10 10 0 0 0 1.46 3.508l-1.562 1.562 2.828 2.828 1.562-1.562a10 10 0 0 0 3.508 1.454v2.21h4v-2.204a10 10 0 0 0 3.508-1.46l1.562 1.562 2.828-2.828-1.562-1.562a10 10 0 0 0 1.454-3.508h2.21v-4h-2.204a10 10 0 0 0-1.46-3.508l1.562-1.562-2.828-2.828-1.562 1.562a10 10 0 0 0-3.508-1.454v-2.21zm2 4a8 8 0 0 1 5.74 2.426 8 8 0 0 1 2.26 5.574 8 8 0 0 1-2.426 5.74 8 8 0 0 1-5.574 2.26 8 8 0 0 1-5.74-2.426 8 8 0 0 1-2.26-5.574 8 8 0 0 1 2.426-5.74 8 8 0 0 1 5.574-2.26zm-2 4v8l6-4z" fill="#fff"/>
</svg>

<svg width="64" height="64" xmlns="http://www.w3.org/2000/svg"><circle cx="32" cy="32" r="27" fill="#7fbc34" style="paint-order:stroke fill markers"/><path d="M32 5A27 27 0 0 0 5 32a27 27 0 0 0 18.699 25.678 38.322 38.322 0 0 0 35.086-28.803A27 27 0 0 0 32 5Z" fill="#8cc348" style="paint-order:stroke fill markers"/><path d="M32 5A27 27 0 0 0 7.447 20.832a33.136 33.136 0 0 0 32.859 29.199 33.136 33.136 0 0 0 14.271-3.266A27 27 0 0 0 58.999 32a27 27 0 0 0-27-27z" fill="green" opacity=".1" style="paint-order:stroke fill markers"/><path d="M20.002 15.001a12 12 0 0 0 12 12 12 12 0 0 0 12-12h-3.001a9 9 0 0 1-9 9A9 9 0 0 1 23 15z" fill="#fff" style="paint-order:stroke markers fill"/><path d="M30 31v2.204a10 10 0 0 0-3.508 1.46l-1.562-1.562-2.828 2.828 1.562 1.562A10 10 0 0 0 22.21 41H20v4h2.204a10 10 0 0 0 1.46 3.508l-1.562 1.562 2.828 2.828 1.562-1.562A10 10 0 0 0 30 52.79V55h4v-2.204a10 10 0 0 0 3.508-1.46l1.562 1.562 2.828-2.828-1.562-1.562A10 10 0 0 0 41.79 45H44v-4h-2.204a10 10 0 0 0-1.46-3.508l1.562-1.562-2.828-2.828-1.562 1.562A10 10 0 0 0 34 33.21V31zm2 4a8 8 0 0 1 5.74 2.426A8 8 0 0 1 40 43a8 8 0 0 1-2.426 5.74A8 8 0 0 1 32 51a8 8 0 0 1-5.74-2.426A8 8 0 0 1 24 43a8 8 0 0 1 2.426-5.74A8 8 0 0 1 32 35zm-2 4v8l6-4z" fill="#fff"/></svg>
